flaticon/technology/game-console-6.svg

<svg xmlns="http://www.w3.org/2000/svg" width="32" height="32" viewBox="0 0 24 24">
    <path d="M 20.828125 0 L 3.171875 0 C 1.652344 0 0.414062 1.238281 0.414062 2.757812 L 0.414062 21.242188 C 0.414062 22.761719 1.652344 24 3.171875 24 L 20.828125 24 C 22.347656 24 23.585938 22.761719 23.585938 21.242188 L 23.585938 2.757812 C 23.585938 1.238281 22.347656 0 20.828125 0 Z M 18.417969 0.828125 L 16 3.246094 C 15.96875 3.234375 15.941406 3.222656 15.910156 3.210938 C 15.859375 3.1875 15.804688 3.167969 15.75 3.144531 C 15.601562 3.085938 15.453125 3.03125 15.300781 2.980469 C 15.246094 2.964844 15.191406 2.941406 15.136719 2.925781 C 14.949219 2.867188 14.757812 2.816406 14.5625 2.765625 C 14.496094 2.75 14.425781 2.734375 14.355469 2.71875 C 14.191406 2.683594 14.03125 2.652344 13.867188 2.625 C 13.8125 2.613281 13.761719 2.605469 13.707031 2.597656 C 13.496094 2.5625 13.285156 2.539062 13.070312 2.523438 C 13.011719 2.515625 12.953125 2.511719 12.894531 2.507812 C 12.667969 2.492188 12.4375 2.484375 12.207031 2.484375 C 11.972656 2.484375 11.742188 2.492188 11.511719 2.507812 C 11.445312 2.511719 11.382812 2.519531 11.320312 2.523438 C 11.132812 2.542969 10.945312 2.5625 10.761719 2.589844 C 10.71875 2.597656 10.675781 2.601562 10.632812 2.605469 C 10.414062 2.640625 10.195312 2.683594 9.980469 2.734375 C 9.929688 2.746094 9.878906 2.757812 9.828125 2.773438 C 9.660156 2.8125 9.496094 2.859375 9.332031 2.910156 C 9.273438 2.929688 9.21875 2.945312 9.160156 2.964844 C 8.960938 3.03125 8.761719 3.101562 8.566406 3.179688 C 8.566406 3.183594 8.5625 3.183594 8.558594 3.183594 C 8.398438 3.25 8.242188 3.320312 8.085938 3.394531 L 5.515625 0.828125 Z M 8.117188 4.308594 L 8.199219 4.265625 C 8.34375 4.1875 8.492188 4.117188 8.644531 4.046875 C 8.648438 4.046875 8.652344 4.042969 8.660156 4.042969 C 8.808594 3.976562 8.957031 3.914062 9.113281 3.855469 C 9.125 3.851562 9.132812 3.847656 9.144531 3.84375 C 9.410156 3.746094 9.683594 3.664062 9.964844 3.589844 C 10.015625 3.578125 10.0625 3.5625 10.113281 3.550781 C 10.203125 3.53125 10.292969 3.515625 10.386719 3.496094 C 10.496094 3.472656 10.609375 3.449219 10.722656 3.433594 C 10.804688 3.417969 10.886719 3.40625 10.96875 3.394531 C 11.101562 3.378906 11.234375 3.363281 11.371094 3.351562 C 11.441406 3.34375 11.507812 3.339844 11.578125 3.332031 C 11.785156 3.320312 11.996094 3.308594 12.207031 3.308594 C 12.414062 3.308594 12.617188 3.320312 12.816406 3.332031 C 12.886719 3.335938 12.953125 3.34375 13.019531 3.347656 C 13.152344 3.359375 13.285156 3.375 13.414062 3.394531 C 13.492188 3.402344 13.570312 3.410156 13.648438 3.421875 C 13.816406 3.449219 13.976562 3.480469 14.136719 3.515625 C 14.261719 3.542969 14.382812 3.574219 14.503906 3.605469 C 14.550781 3.617188 14.601562 3.628906 14.648438 3.644531 C 14.78125 3.679688 14.914062 3.722656 15.046875 3.765625 C 15.050781 3.765625 15.054688 3.765625 15.054688 3.769531 C 15.351562 3.867188 15.636719 3.984375 15.914062 4.113281 L 16.109375 4.207031 C 17.875 5.105469 19.035156 6.59375 19.035156 8.277344 C 19.035156 11.015625 15.972656 13.242188 12.207031 13.242188 C 8.441406 13.242188 5.378906 11.015625 5.378906 8.277344 C 5.378906 6.65625 6.457031 5.214844 8.117188 4.308594 Z M 4.550781 23.171875 L 4.550781 19.863281 L 19.449219 19.863281 L 19.449219 23.171875 Z M 22.757812 21.242188 C 22.757812 22.308594 21.894531 23.171875 20.828125 23.171875 L 20.277344 23.171875 L 20.277344 19.035156 L 3.722656 19.035156 L 3.722656 23.171875 L 3.171875 23.171875 C 2.105469 23.171875 1.242188 22.308594 1.242188 21.242188 L 1.242188 17.417969 C 1.269531 17.445312 1.300781 17.472656 1.332031 17.5 C 1.363281 17.527344 1.394531 17.558594 1.429688 17.582031 C 1.460938 17.613281 1.5 17.636719 1.535156 17.664062 C 1.570312 17.691406 1.605469 17.71875 1.640625 17.742188 C 1.675781 17.765625 1.71875 17.789062 1.753906 17.8125 C 1.792969 17.832031 1.828125 17.855469 1.867188 17.878906 C 1.90625 17.898438 1.949219 17.917969 1.992188 17.9375 C 2.027344 17.957031 2.066406 17.976562 2.105469 17.992188 C 2.152344 18.011719 2.195312 18.027344 2.242188 18.042969 C 2.28125 18.054688 2.320312 18.070312 2.355469 18.082031 C 2.40625 18.097656 2.457031 18.109375 2.507812 18.121094 C 2.546875 18.132812 2.582031 18.144531 2.621094 18.152344 C 2.675781 18.164062 2.738281 18.171875 2.796875 18.179688 C 2.828125 18.183594 2.859375 18.1875 2.890625 18.191406 C 2.984375 18.203125 3.078125 18.207031 3.171875 18.207031 L 20.828125 18.207031 C 20.921875 18.207031 21.015625 18.203125 21.109375 18.191406 C 21.140625 18.191406 21.171875 18.183594 21.203125 18.179688 C 21.261719 18.171875 21.324219 18.164062 21.378906 18.152344 C 21.417969 18.144531 21.453125 18.132812 21.492188 18.125 C 21.542969 18.109375 21.59375 18.101562 21.644531 18.085938 C 21.683594 18.074219 21.71875 18.058594 21.757812 18.042969 C 21.804688 18.027344 21.851562 18.011719 21.894531 17.992188 C 21.933594 17.976562 21.972656 17.957031 22.011719 17.9375 C 22.050781 17.917969 22.09375 17.898438 22.132812 17.878906 C 22.171875 17.859375 22.207031 17.835938 22.246094 17.8125 C 22.285156 17.789062 22.324219 17.765625 22.359375 17.742188 C 22.394531 17.71875 22.429688 17.691406 22.464844 17.664062 C 22.5 17.640625 22.539062 17.613281 22.574219 17.585938 C 22.605469 17.558594 22.636719 17.527344 22.667969 17.5 C 22.699219 17.472656 22.730469 17.445312 22.757812 17.417969 Z M 20.828125 17.378906 L 3.171875 17.378906 C 2.105469 17.378906 1.242188 16.511719 1.242188 15.449219 L 1.242188 2.757812 C 1.242188 1.691406 2.105469 0.828125 3.171875 0.828125 L 4.347656 0.828125 L 7.332031 3.8125 C 5.636719 4.875 4.550781 6.480469 4.550781 8.277344 C 4.550781 11.46875 7.984375 14.070312 12.207031 14.070312 C 16.429688 14.070312 19.863281 11.46875 19.863281 8.277344 C 19.863281 6.378906 18.644531 4.695312 16.777344 3.636719 L 19.585938 0.828125 L 20.828125 0.828125 C 21.894531 0.828125 22.757812 1.691406 22.757812 2.757812 L 22.757812 15.449219 C 22.757812 16.511719 21.894531 17.378906 20.828125 17.378906 Z M 20.828125 17.378906"/>
    <path d="M19.863281 12.414062C18.722656 12.414062 17.792969 13.25 17.792969 14.277344 17.792969 15.300781 18.722656 16.136719 19.863281 16.136719 21.003906 16.136719 21.929688 15.300781 21.929688 14.277344 21.929688 13.25 21.003906 12.414062 19.863281 12.414062zM19.863281 15.308594C19.175781 15.308594 18.621094 14.847656 18.621094 14.277344 18.621094 13.707031 19.175781 13.242188 19.863281 13.242188 20.546875 13.242188 21.101562 13.707031 21.101562 14.277344 21.101562 14.847656 20.546875 15.308594 19.863281 15.308594zM4.136719 12.414062C2.996094 12.414062 2.070312 13.25 2.070312 14.277344 2.070312 15.300781 2.996094 16.136719 4.136719 16.136719 5.277344 16.136719 6.207031 15.300781 6.207031 14.277344 6.207031 13.25 5.277344 12.414062 4.136719 12.414062zM4.136719 15.308594C3.453125 15.308594 2.898438 14.847656 2.898438 14.277344 2.898438 13.707031 3.453125 13.242188 4.136719 13.242188 4.824219 13.242188 5.378906 13.707031 5.378906 14.277344 5.378906 14.847656 4.824219 15.308594 4.136719 15.308594zM5.792969 22.757812L8.277344 22.757812 8.277344 20.691406 5.792969 20.691406zM6.621094 21.515625L7.449219 21.515625 7.449219 21.929688 6.621094 21.929688zM9.101562 22.757812L11.585938 22.757812 11.585938 20.691406 9.101562 20.691406zM9.929688 21.515625L10.757812 21.515625 10.757812 21.929688 9.929688 21.929688zM12.414062 22.757812L14.898438 22.757812 14.898438 20.691406 12.414062 20.691406zM13.242188 21.515625L14.070312 21.515625 14.070312 21.929688 13.242188 21.929688zM15.722656 22.757812L18.207031 22.757812 18.207031 20.691406 15.722656 20.691406zM16.550781 21.515625L17.378906 21.515625 17.378906 21.929688 16.550781 21.929688zM16.550781 21.515625"/>
</svg>

<svg xmlns="http://www.w3.org/2000/svg" width="32" height="32" viewBox="0 0 24 24">
    <path d="M20.828 0H3.172A2.762 2.762 0 0 0 .414 2.758v18.484A2.762 2.762 0 0 0 3.172 24h17.656a2.762 2.762 0 0 0 2.758-2.758V2.758A2.762 2.762 0 0 0 20.828 0zm-2.41.828L16 3.246l-.09-.035c-.05-.023-.105-.043-.16-.066a8.787 8.787 0 0 0-.45-.165c-.054-.015-.109-.039-.163-.054a12.31 12.31 0 0 0-.575-.16 10.743 10.743 0 0 0-.855-.168 6.903 6.903 0 0 0-.637-.075c-.058-.007-.117-.011-.175-.015a10.019 10.019 0 0 0-1.383 0c-.067.004-.13.012-.192.015-.187.02-.375.04-.558.067-.043.008-.086.012-.13.015a9.166 9.166 0 0 0-.652.13c-.05.011-.101.023-.152.038-.168.04-.332.086-.496.137-.059.02-.113.035-.172.055-.2.066-.398.137-.594.215 0 .004-.004.004-.007.004-.16.066-.317.136-.473.21L5.516.829zm-10.3 3.48l.081-.042c.145-.079.293-.149.446-.22.003 0 .007-.003.015-.003.149-.066.297-.129.453-.188.012-.003.02-.007.032-.011.265-.098.539-.18.82-.254.05-.012.098-.027.148-.04.09-.019.18-.034.274-.054.11-.023.222-.047.336-.062.082-.016.164-.028.246-.04.133-.015.265-.03.402-.042.07-.008.137-.012.207-.02.207-.012.418-.023.629-.023.207 0 .41.011.61.023.07.004.136.012.203.016.132.011.265.027.394.047.078.007.156.015.234.027.168.027.329.058.489.094.125.027.246.058.367.09a7.735 7.735 0 0 1 1.41.508l.195.093c1.766.898 2.926 2.387 2.926 4.07 0 2.739-3.062 4.965-6.828 4.965-3.766 0-6.828-2.226-6.828-4.965 0-1.62 1.078-3.062 2.738-3.968zM4.55 23.173v-3.309h14.898v3.309zm18.207-1.93c0 1.067-.863 1.93-1.93 1.93h-.55v-4.137H3.722v4.137h-.551a1.929 1.929 0 0 1-1.93-1.93v-3.824c.028.027.059.055.09.082.031.027.063.059.098.082.03.031.07.055.105.082.035.027.07.055.106.078.035.024.078.047.113.07.039.02.074.043.113.067.04.02.082.039.125.058.035.02.074.04.113.055.047.02.09.035.137.051.04.012.078.027.113.039.051.016.102.027.153.04.039.01.074.023.113.03.055.012.117.02.176.028l.094.011c.093.012.187.016.28.016h17.657c.094 0 .188-.004.281-.016.032 0 .063-.007.094-.011.059-.008.121-.016.176-.028.039-.007.074-.02.113-.027.051-.016.102-.023.153-.04.039-.01.074-.026.113-.042.047-.016.094-.031.137-.05.039-.016.078-.036.117-.055l.12-.06c.04-.019.075-.042.114-.066a1.83 1.83 0 0 0 .219-.148c.035-.023.074-.05.11-.078.03-.027.062-.059.093-.086.031-.027.062-.055.09-.082zm-1.93-3.863H3.172a1.931 1.931 0 0 1-1.93-1.93V2.758c0-1.067.863-1.93 1.93-1.93h1.176l2.984 2.985C5.637 4.875 4.551 6.48 4.551 8.277c0 3.192 3.433 5.793 7.656 5.793s7.656-2.601 7.656-5.793c0-1.898-1.218-3.582-3.086-4.64L19.586.828h1.242c1.067 0 1.93.863 1.93 1.93v12.691c0 1.063-.863 1.93-1.93 1.93zm0 0"/>
    <path d="M19.863 12.414c-1.14 0-2.07.836-2.07 1.863 0 1.024.93 1.86 2.07 1.86 1.14 0 2.067-.836 2.067-1.86 0-1.027-.926-1.863-2.067-1.863zm0 2.895c-.687 0-1.242-.461-1.242-1.032 0-.57.555-1.035 1.242-1.035.684 0 1.239.465 1.239 1.035 0 .57-.555 1.032-1.239 1.032zm0 0M4.137 12.414c-1.14 0-2.067.836-2.067 1.863 0 1.024.926 1.86 2.067 1.86 1.14 0 2.07-.836 2.07-1.86 0-1.027-.93-1.863-2.07-1.863zm0 2.895c-.684 0-1.239-.461-1.239-1.032 0-.57.555-1.035 1.239-1.035.687 0 1.242.465 1.242 1.035 0 .57-.555 1.032-1.242 1.032zm0 0M5.793 22.758h2.484V20.69H5.793zm.828-1.242h.828v.414h-.828zm0 0M9.102 22.758h2.484V20.69H9.102zm.828-1.242h.828v.414H9.93zm0 0M12.414 22.758h2.484V20.69h-2.484zm.828-1.242h.828v.414h-.828zm0 0M15.723 22.758h2.484V20.69h-2.484zm.828-1.242h.828v.414h-.828zm0 0"/>
</svg>
